dist/assets/img/vk.svg

<svg width="28" height="16" viewBox="0 0 28 16" fill="none" xmlns="http://www.w3.org/2000/svg">
<path d="M24.098 10.1524C25.0268 11.0593 26.0071 11.9124 26.8401 12.9107C27.2081 13.3543 27.5565 13.812 27.823 14.3269C28.2007 15.0587 27.8586 15.864 27.2024 15.9077L23.1233 15.9058C22.0712 15.9931 21.2319 15.5696 20.5262 14.8503C19.9615 14.275 19.4384 13.6628 18.8954 13.0681C18.6728 12.8251 18.4397 12.5964 18.1614 12.4156C17.6046 12.0541 17.1212 12.1648 16.8029 12.7456C16.4789 13.3363 16.4053 13.9904 16.3735 14.6487C16.3298 15.6092 16.0394 15.8618 15.0746 15.9057C13.0126 16.003 11.0557 15.691 9.23769 14.6508C7.63491 13.7338 6.39208 12.4392 5.31026 10.9736C3.20408 8.11988 1.59107 4.98399 0.141412 1.76027C-0.184909 1.03396 0.0537475 0.644094 0.855138 0.630258C2.18585 0.604391 3.5164 0.60625 4.84869 0.628399C5.38955 0.636328 5.74759 0.946516 5.95644 1.45746C6.6764 3.22775 7.55736 4.91202 8.66315 6.47318C8.95764 6.8888 9.25793 7.30448 9.68547 7.59701C10.1585 7.92092 10.5187 7.81357 10.7412 7.2866C10.8824 6.95246 10.9443 6.59256 10.9761 6.23474C11.0815 5.00356 11.0954 3.77446 10.9105 2.5476C10.797 1.78192 10.3657 1.28623 9.60169 1.14137C9.21183 1.06748 9.26985 0.922399 9.45863 0.699875C9.78648 0.316078 10.0949 0.0771484 10.7096 0.0771484H15.3197C16.0454 0.220375 16.2066 0.546422 16.3059 1.27666L16.3099 6.39744C16.302 6.68012 16.4511 7.51908 16.9603 7.70616C17.3678 7.83938 17.6364 7.51334 17.881 7.25494C18.9848 6.08348 19.7725 4.69901 20.4763 3.26543C20.7886 2.63505 21.0572 1.98044 21.3175 1.32632C21.5103 0.840969 21.8129 0.602148 22.3596 0.612703L26.7965 0.616641C26.9281 0.616641 27.0612 0.618555 27.1886 0.640375C27.9362 0.767797 28.1411 1.08941 27.9102 1.81949C27.5464 2.96492 26.8384 3.91949 26.1462 4.87844C25.4063 5.90224 24.6149 6.89105 23.8812 7.92092C23.207 8.86155 23.2606 9.33558 24.098 10.1524Z" fill="#436EAB"/>
</svg>

<svg width="28" height="16" fill="none" xmlns="http://www.w3.org/2000/svg"><path d="M24.098 10.152c.929.907 1.91 1.76 2.742 2.759.368.443.716.901.983 1.416.378.732.036 1.537-.62 1.58l-4.08-.001c-1.052.087-1.891-.336-2.597-1.056-.564-.575-1.088-1.187-1.63-1.782a3.866 3.866 0 00-.735-.652c-.556-.362-1.04-.251-1.358.33-.324.59-.398 1.244-.43 1.903-.043.96-.334 1.213-1.298 1.257-2.062.097-4.02-.215-5.837-1.255-1.603-.917-2.846-2.212-3.928-3.677C3.204 8.12 1.591 4.984.141 1.76-.185 1.034.054.644.855.63 2.185.604 3.516.606 4.85.628c.54.008.899.319 1.107.83.72 1.77 1.601 3.454 2.707 5.015.295.416.595.831 1.022 1.124.473.324.834.217 1.056-.31.141-.335.203-.694.235-1.052.105-1.231.12-2.46-.066-3.687-.113-.766-.544-1.262-1.308-1.407-.39-.074-.332-.219-.143-.441.327-.384.636-.623 1.25-.623h4.61c.726.143.888.47.987 1.2l.004 5.12c-.008.283.141 1.122.65 1.31.408.132.676-.194.921-.452 1.104-1.172 1.892-2.556 2.595-3.99.313-.63.581-1.285.841-1.939.193-.485.496-.724 1.043-.713l4.437.004c.131 0 .264.002.392.023.747.128.952.45.721 1.18-.364 1.145-1.072 2.1-1.764 3.058-.74 1.024-1.531 2.013-2.265 3.043-.674.94-.62 1.415.217 2.231z" fill="#436EAB"/></svg>
